svgs/bookmyshow.svg

<?xml version="1.0" encoding="UTF-8" standalone="no"?>
<svg
   id="vector"
   width="192"
   height="192"
   viewBox="0 0 192 192"
   version="1.1"
   sodipodi:docname="bookmyshow.svg"
   inkscape:version="1.2.1 (9c6d41e410, 2022-07-14)"
   xmlns:inkscape="http://www.inkscape.org/namespaces/inkscape"
   xmlns:sodipodi="http://sodipodi.sourceforge.net/DTD/sodipodi-0.dtd"
   xmlns="http://www.w3.org/2000/svg"
   xmlns:svg="http://www.w3.org/2000/svg">
  <defs
     id="defs8" />
  <sodipodi:namedview
     id="namedview6"
     pagecolor="#ffffff"
     bordercolor="#000000"
     borderopacity="0.25"
     inkscape:showpageshadow="2"
     inkscape:pageopacity="0.0"
     inkscape:pagecheckerboard="0"
     inkscape:deskcolor="#d1d1d1"
     showgrid="false"
     inkscape:zoom="2.0353872"
     inkscape:cx="-25.793618"
     inkscape:cy="33.900184"
     inkscape:window-width="1920"
     inkscape:window-height="1009"
     inkscape:window-x="-8"
     inkscape:window-y="-8"
     inkscape:window-maximized="1"
     inkscape:current-layer="g1574" />
  <g
     id="g1574"
     style="fill:none;fill-opacity:0.25;stroke:#000000;stroke-width:8;stroke-dasharray:none;stroke-opacity:1"
     transform="translate(16,16)">
    <g
       id="g1674">
      <g
         id="g1678"
         transform="matrix(0.56829078,0,0,0.56088764,29.830296,28.92571)"
         style="stroke-width:14.1699">
        <g
           id="g1682"
           transform="matrix(2.8200573,0,0,2.875942,-441.56336,-205.81809)"
           style="stroke-width:4.97563">
          <g
             id="g2448"
             transform="matrix(0.614425,0,0,0.60481985,137.68621,51.188542)"
             style="stroke-width:8.16208">
            <g
               id="g2454"
               transform="matrix(0.96252677,0,0,0.96252251,3.6197567,4.4343903)"
               style="stroke-width:8.47985;stroke-linecap:round;stroke-linejoin:round;stroke-dasharray:none">
              <path
                 fill="#000000"
                 d="M 158.38778,46.653111 149.45444,31.042 133.57222,38.893111 124.63889,23.282 108.75667,31.133111 99.823332,15.522 83.94111,23.373111 75.007777,7.7619999 59.125555,15.613111 50.192222,0.002 34.31,7.853111 0.46999999,120.83755 41.441111,133.742 c 2.706666,-9.11556 11.008888,-15.79333 20.755555,-15.79333 12.002222,0 21.748889,10.01777 21.748889,22.38 v 0.45111 c 0.09111,1.98444 -0.09111,4.06 -0.722223,6.04666 l 39.704748,10.71903 35.33739,-111.492806"
                 fill-opacity="0.25"
                 id="path_0"
                 style="fill:none;fill-opacity:0.25;stroke:#000000;stroke-width:8.31148;stroke-linecap:round;stroke-linejoin:round;stroke-dasharray:none;stroke-opacity:1"
                 sodipodi:nodetypes="cccccccccccccsscccc"
                 transform="matrix(1.015553,0,0,1.0249861,0.455415,4.0424252)" />
              <path
                 fill="#000000"
                 d="m 83.452322,104.8922 0.306566,-39.921312 c 0.03258,-4.242099 -2.977778,-7.851111 -7.04,-8.573333 l -1.444444,-0.18 H 66.792222 V 104.89219 M 66.134001,56.217565 H 45.490716 l 0.613133,49.283785"
                 id="path_1"
                 style="fill:none;fill-opacity:0.25;stroke:#000000;stroke-width:8.47985;stroke-linecap:round;stroke-linejoin:round;stroke-dasharray:none;stroke-opacity:1"
                 sodipodi:nodetypes="csccccccc" />
              <path
                 fill="#000000"
                 d="M 106.05398,112.69575 110.88305,95.461042 95.000399,57.791158 M 110.88675,94.63397 123.09444,56.527078"
                 id="path_2"
                 style="fill:none;fill-opacity:0.25;stroke:#000000;stroke-width:8.47985;stroke-linecap:round;stroke-linejoin:round;stroke-dasharray:none;stroke-opacity:1"
                 sodipodi:nodetypes="ccccc" />
            </g>
          </g>
        </g>
      </g>
    </g>
  </g>
</svg>

<svg width="192" height="192" viewBox="0 0 192 192" xmlns="http://www.w3.org/2000/svg"><g style="fill:none;fill-opacity:.25;stroke:#000;stroke-width:8;stroke-dasharray:none;stroke-opacity:1"><g style="stroke-width:14.1699"><g style="stroke-width:4.97563"><g style="stroke-width:8.16208"><g style="stroke-width:8.47985;stroke-linecap:round;stroke-linejoin:round;stroke-dasharray:none" fill="#000"><path d="m158.388 46.653-8.934-15.611-15.882 7.851-8.933-15.611-15.882 7.851-8.934-15.611-15.882 7.851-8.933-15.611-15.882 7.851L50.192.002 34.31 7.853.47 120.838l40.971 12.904c2.707-9.116 11.009-15.793 20.756-15.793 12.002 0 21.749 10.017 21.749 22.38v.45c.09 1.985-.092 4.06-.723 6.047l39.705 10.72 35.337-111.493" style="fill:none;fill-opacity:.25;stroke:#000;stroke-width:8.31148;stroke-linecap:round;stroke-linejoin:round;stroke-dasharray:none;stroke-opacity:1" transform="matrix(.96253 0 0 .96252 19.548 20.178)"/><path d="m83.452 104.892.307-39.921c.032-4.242-2.978-7.851-7.04-8.573l-1.445-.18h-8.482v48.674m-.658-48.674H45.491l.613 49.283M106.054 112.696l4.829-17.235L95 57.791m15.887 36.843 12.207-38.107" style="fill:none;fill-opacity:.25;stroke:#000;stroke-width:8.47985;stroke-linecap:round;stroke-linejoin:round;stroke-dasharray:none;stroke-opacity:1" transform="matrix(.94779 0 0 .93906 19.116 16.382)"/></g></g></g></g></g></svg>
